src/components/00-materials/images-raw/Conversation.svg

<svg width="96" height="96" viewBox="0 0 96 96" fill="none" xmlns="http://www.w3.org/2000/svg">
<path d="M39.93 52.3198C38.8039 52.2334 37.7251 51.8309 36.8176 51.1587C35.9101 50.4865 35.2108 49.5718 34.8 48.5198C33.43 51.5198 31.8 53.8398 27.64 53.8398H23.49V59.9298C23.49 64.9298 26.49 69.0598 31.78 69.0598C37.07 69.0598 40.08 64.9698 40.08 59.9298V52.3198H39.93Z" stroke="#00008F" stroke-width="2" stroke-linecap="round" stroke-linejoin="round"/>
<path d="M40.08 60.6898C41.2862 59.8297 42.2614 58.685 42.919 57.3575C43.5767 56.03 43.8965 54.5606 43.85 53.0799V48.5199C43.8566 48.1217 43.7839 47.7262 43.6361 47.3564C43.4883 46.9867 43.2684 46.65 42.9892 46.3661C42.7099 46.0822 42.377 45.8568 42.0097 45.7029C41.6424 45.549 41.2482 45.4698 40.85 45.4699C39.8814 43.8285 38.4964 42.4721 36.8353 41.5379C35.1741 40.6038 33.2956 40.1249 31.39 40.1499H30.49C29.0704 40.1551 27.6657 40.4399 26.3562 40.988C25.0467 41.5361 23.8579 42.3368 22.8579 43.3443C21.8578 44.3518 21.0659 45.5464 20.5275 46.86C19.9891 48.1735 19.7147 49.5803 19.72 50.9999V52.8599C19.72 55.7999 21.22 59.1599 23.49 60.6799M26.5 67.2299V71.3498M37.06 67.2299V71.3498M26.3 71.3999L20 72.3498C17.6492 72.6595 15.4885 73.8051 13.913 75.5771C12.3375 77.3491 11.4525 79.629 11.42 81.9999V85.5499C11.4256 86.268 11.6828 86.9615 12.1469 87.5097C12.611 88.0578 13.2526 88.4259 13.96 88.5499L22.31 90.1099C28.5887 91.2862 35.0313 91.2862 41.31 90.1099L49.66 88.5499C50.3674 88.4259 51.009 88.0578 51.4731 87.5097C51.9372 86.9615 52.1944 86.268 52.2 85.5499V81.9999C52.1739 79.633 51.2982 77.3544 49.7324 75.5794C48.1666 73.8043 46.015 72.6511 43.67 72.3299L37.32 71.3798" stroke="#00008F" stroke-width="2" stroke-linecap="round" stroke-linejoin="round"/>
<path d="M37.06 71.3498L31.78 75.8198L37.82 79.7098L39.41 71.7198L37.06 71.3498ZM24.16 71.7198L25.75 79.7098L31.78 75.8198L26.5 71.3498L24.16 71.7198ZM19.72 85.6898V89.6098V85.6898ZM43.85 85.6898V89.6098V85.6898ZM31.78 75.8198V90.9998V75.8198ZM64.74 57.0898C63.9624 57.1147 63.1944 56.9122 62.5302 56.5072C61.8659 56.1023 61.3341 55.5124 61 54.8098C60 56.8998 58.79 58.5998 55.72 58.5998H52.72V63.1598C52.72 66.6998 54.84 69.9898 58.72 69.9898C62.6 69.9898 64.72 66.6998 64.72 63.1598L64.74 57.0898Z" stroke="#00008F" stroke-width="2" stroke-linecap="round" stroke-linejoin="round"/>
<path d="M64.74 64.68C64.74 64.68 68.51 63.16 68.51 57.84V56.33C68.51 54.05 68.51 51.01 65.51 51.01C64.1 48.65 62.51 47.22 58.73 47.22H58C55.6016 47.259 53.3133 48.2332 51.6227 49.9349C49.9322 51.6366 48.9731 53.9314 48.95 56.33V57.84C48.95 63.16 52.72 64.68 52.72 64.68M63.23 67.92V71.51M63.23 71.51L67.47 71.97C69.1708 72.1571 70.7469 72.9523 71.9081 74.209C73.0693 75.4658 73.7376 77.0997 73.79 78.81V81.33C73.7743 81.8465 73.5773 82.341 73.2336 82.7268C72.8898 83.1126 72.4213 83.365 71.91 83.44L65.73 84.55C61.3981 85.1215 57.0131 85.1685 52.67 84.69M63.23 71.51L58.71 76.06L54.18 71.51M54.18 67.85V71.51M54.18 71.51L49.94 72C48.8215 72.16 47.7505 72.5591 46.8 73.17L54.18 71.51ZM67.76 80.62V84.19" stroke="#00008F" stroke-width="2" stroke-linecap="round" stroke-linejoin="round"/>
<path d="M66.04 25.86C67.3213 25.86 68.36 24.8213 68.36 23.54C68.36 22.2587 67.3213 21.22 66.04 21.22C64.7587 21.22 63.72 22.2587 63.72 23.54C63.72 24.8213 64.7587 25.86 66.04 25.86Z" stroke="#00008F" stroke-width="2" stroke-linecap="round" stroke-linejoin="round"/>
<path d="M57.93 25.86C59.2113 25.86 60.25 24.8213 60.25 23.54C60.25 22.2587 59.2113 21.22 57.93 21.22C56.6487 21.22 55.61 22.2587 55.61 23.54C55.61 24.8213 56.6487 25.86 57.93 25.86Z" stroke="#00008F" stroke-width="2" stroke-linecap="round" stroke-linejoin="round"/>
<path d="M74.15 25.86C75.4313 25.86 76.47 24.8213 76.47 23.54C76.47 22.2587 75.4313 21.22 74.15 21.22C72.8687 21.22 71.83 22.2587 71.83 23.54C71.83 24.8213 72.8687 25.86 74.15 25.86Z" stroke="#00008F" stroke-width="2" stroke-linecap="round" stroke-linejoin="round"/>
<path d="M66 4.99989C62.769 5.00285 59.595 5.85103 56.7933 7.46017C53.9915 9.06932 51.6595 11.3834 50.0288 14.1727C48.3981 16.962 47.5255 20.1293 47.4976 23.3601C47.4698 26.591 48.2876 29.7729 49.87 32.5899L47.5 42.0799L57 39.7099C59.4743 41.0977 62.2342 41.8992 65.0671 42.0526C67.8999 42.206 70.7302 41.7073 73.34 40.5948C75.9498 39.4822 78.2694 37.7856 80.1203 35.6356C81.9713 33.4855 83.3041 30.9393 84.0161 28.1931C84.7282 25.4469 84.8005 22.5739 84.2276 19.7954C83.6546 17.0168 82.4516 14.4068 80.7112 12.1664C78.9709 9.92587 76.7395 8.11468 74.189 6.87223C71.6385 5.62979 68.837 4.98923 66 4.99989V4.99989Z" stroke="#00008F" stroke-width="2" stroke-linecap="round" stroke-linejoin="round"/>
</svg>

<svg width="96" height="96" viewBox="0 0 96 96" fill="none" xmlns="http://www.w3.org/2000/svg"><path d="M39.93 52.32a6 6 0 01-5.13-3.8c-1.37 3-3 5.32-7.16 5.32h-4.15v6.09c0 5 3 9.13 8.29 9.13 5.29 0 8.3-4.09 8.3-9.13v-7.61h-.15z" stroke="#00008F" stroke-width="2" stroke-linecap="round" stroke-linejoin="round"/><path d="M40.08 60.69a8.999 8.999 0 003.77-7.61v-4.56a3 3 0 00-3-3.05 10.82 10.82 0 00-9.46-5.32h-.9A10.81 10.81 0 0019.72 51v1.86c0 2.94 1.5 6.3 3.77 7.82m3.01 6.55v4.12m10.56-4.12v4.12m-10.76.05l-6.3.95A9.87 9.87 0 0011.42 82v3.55a3.07 3.07 0 002.54 3l8.35 1.56a51.59 51.59 0 0019 0l8.35-1.56a3.07 3.07 0 002.54-3V82a9.87 9.87 0 00-8.53-9.67l-6.35-.95" stroke="#00008F" stroke-width="2" stroke-linecap="round" stroke-linejoin="round"/><path d="M37.06 71.35l-5.28 4.47 6.04 3.89 1.59-7.99-2.35-.37zm-12.9.37l1.59 7.99 6.03-3.89-5.28-4.47-2.34.37zm-4.44 13.97v3.92-3.92zm24.13 0v3.92-3.92zm-12.07-9.87V91 75.82zm32.96-18.73A3.999 3.999 0 0161 54.81c-1 2.09-2.21 3.79-5.28 3.79h-3v4.56c0 3.54 2.12 6.83 6 6.83s6-3.29 6-6.83l.02-6.07z" stroke="#00008F" stroke-width="2" stroke-linecap="round" stroke-linejoin="round"/><path d="M64.74 64.68s3.77-1.52 3.77-6.84v-1.51c0-2.28 0-5.32-3-5.32-1.41-2.36-3-3.79-6.78-3.79H58a9.2 9.2 0 00-9.05 9.11v1.51c0 5.32 3.77 6.84 3.77 6.84m10.51 3.24v3.59m0 0l4.24.46a7.1 7.1 0 016.32 6.84v2.52a2.2 2.2 0 01-1.88 2.11l-6.18 1.11a54.347 54.347 0 01-13.06.14m10.56-13.18l-4.52 4.55-4.53-4.55m0-3.66v3.66m0 0l-4.24.49c-1.118.16-2.19.56-3.14 1.17l7.38-1.66zm13.58 9.11v3.57M66.04 25.86a2.32 2.32 0 100-4.64 2.32 2.32 0 000 4.64zM57.93 25.86a2.32 2.32 0 100-4.64 2.32 2.32 0 000 4.64zM74.15 25.86a2.32 2.32 0 100-4.64 2.32 2.32 0 000 4.64z" stroke="#00008F" stroke-width="2" stroke-linecap="round" stroke-linejoin="round"/><path d="M66 5a18.52 18.52 0 00-16.13 27.59l-2.37 9.49 9.5-2.37A18.54 18.54 0 1066 5v0z" stroke="#00008F" stroke-width="2" stroke-linecap="round" stroke-linejoin="round"/></svg>
